!!!OTL: Liebesjagd (Jaeger und Nonne)
!!!ARE: Europa, Mitteleuropa, Deutschland
!!!SCT: A0439
!!!YEM: Copyright 1995, estate of Helmut Schaffrath.
**kern
*ICvox
*Ivox
!! Mixed meters:  4/2; 6/2
*M4/2
*k[f#c#]
*D:
{2a
=1
2a
2a
2ccn
2ccn
=2
1dd
2a}
{2dd
=3
*M6/2
1ee
2dd
2ccn
1b
=4
*M4/2
1a
2r}
{2dd
=5
2ccn
2a
2a
2fn
=6
1a
2ccn}
{2ccn
=7
2ccn
2a
2a
2fn
=8
1d
2fn}
{2fn
=9
2fn
2g
2fn
2e
=10
1d}
{1a
=11
2.a
4g
2fn
2e
=12
1.d}
==
!!!AGN: Romanze, Ballade, Lied, Jaegerlied
!! Hs. des 15. Jh. Mitgetheilt in None, Anzeiger IV, 454. Die
!!    Melodie das. VI. Jg Beil. II No. 4.
!!!ONB: ESAC (Essen Associative Code) Database: ALTDEU
!!!AMT: irregular
!!!AIN: vox
!!!EED: Helmut Schaffrath
!!!EEV: 1.0
*-
